X: 3237
M: 6/8
L: 1/8
K: G
de |\
dcB d2e | dcB d2c | B2B BAB | cAA Ade |\
dcB d2e | dcB d2c | B2B cAA | AGG G  :|
|: DD |\


